!!!OTL: 110. Schloap, Kindken, profoss!
!!!OPR: Reime von boesen Ammen oder Kindermaedchen.
!!!ARE: Europa, Mitteleuropa, Deutschland, Westfalen, Ravensberg
!!!SCT: K0110
!!!TXL: @@NDS
!!!YEM: Copyright 1995, estate of Helmut Schaffrath.
**kern	**text
*clefG2	*
*M6/8	*
*k[b-]	*
*F:	*
=1	=1
{4.a	Schloap,
8g	Kind-
8f	-ken,
8g	pro-
=2	=2
4.f	-foß!
4r}	.
{16fL	din
16aJ	.
=3	=3
8.cc	Voa-
16dd	-der
8cc	dat
8b-L	is
8gJ	.
8cc	en
=4	=4
4.a	Voß;
4r}	.
{16a	di-
16a	-ne
=5	=5
8.b-	Mo-
16a	-der
8b-	dat
8gL	is
8aJ	.
16b-	e-
16b-	-ne
=6	=6
8ccL	Bit-
8b-J	.
8cc	-ten-
8a	-Tie-
8g}	-be*,
{8a	de
=7	=7
8.b-L	will
16aJ	.
8b-	di
8gL	kee-
8aJ	.
8b-	-nen
=8	=8
8ccL	Tit-
8b-J	.
8cc	-te*
4a	giebn.
8r}	.
=9	=9
{4.a	Schloap,
8g	Kind-
8f	-ken,
8g	pro-
=10	=10
4.f	-foß!
!LO:N:vis=4	!
4.r}	.
==	==
!!!AGN: Kinder -, Wiegen - Lied
!!!ONB: ESAC (Essen Associative Code) Database: KINDER
!!!AMT: compound duple
!!!AIN: vox
!!!EED: Helmut Schaffrath
!!!EEV: 1.0
!!!GTL: I. Wiegenlieder.
!!@@COMMENT:"Aus Grafschaft Ravensberg in Weֵ¿tfalen: Erk I. Rr 2, 7."
!!Erklärung: 1) du mußt. 2) Fuchs. 3) beißende Hündin. 4) Brüſte.
!!@@END:
!!!URL-scan: https://archive.org/details/DeutschesKinderliedUndKinderspiel/page/27/mode/1up
!!!ENC: Anna Maria Matuszewska
!!!EEV: 2024/29/08
*-	*-
